X:4886
T:Over the Hills and Far Away
O:england
M:4/4
A:North-West
R:Slow air
K:ADor
GABA GABA| G2E2 E3D| GABA GABG| c2A2 A4|\
GABA GABA| G2E2 c4|  E2DC D2B2| c2A2 A4::\
d3c B2A2| G2E2 E4  | d3c B2AG| c2A2 A4| \
d3c B2A2| G2E2 c2E2| E2DC D2B2| c2A2 A4:|


